src/img/icons/YouTube.svg

<svg width="32" height="32" viewBox="0 0 32 32" fill="none" xmlns="http://www.w3.org/2000/svg">
<path d="M28.2578 9.85938C28.8203 11.8281 28.8203 16.0469 28.8203 16.0469C28.8203 16.0469 28.8203 20.2188 28.2578 22.2344C27.9766 23.3594 27.0859 24.2031 26.0078 24.4844C23.9922 25 16.0234 25 16.0234 25C16.0234 25 8.00781 25 5.99219 24.4844C4.91406 24.2031 4.02344 23.3594 3.74219 22.2344C3.17969 20.2188 3.17969 16.0469 3.17969 16.0469C3.17969 16.0469 3.17969 11.8281 3.74219 9.85938C4.02344 8.73438 4.91406 7.84375 5.99219 7.5625C8.00781 7 16.0234 7 16.0234 7C16.0234 7 23.9922 7 26.0078 7.5625C27.0859 7.84375 27.9766 8.73438 28.2578 9.85938ZM13.3984 19.8438L20.0547 16.0469L13.3984 12.25V19.8438Z" fill="#131212"/>
</svg>

<svg xmlns="http://www.w3.org/2000/svg" viewBox="0 0 32 32">
  <path fill="currentColor" d="M28.258 9.86c.562 1.968.562 6.187.562 6.187s0 4.172-.562 6.187a3.127 3.127 0 0 1-2.25 2.25C23.992 25 16.023 25 16.023 25s-8.015 0-10.03-.516a3.127 3.127 0 0 1-2.25-2.25c-.563-2.015-.563-6.187-.563-6.187s0-4.219.562-6.188c.281-1.125 1.172-2.015 2.25-2.296C8.008 7 16.023 7 16.023 7s7.97 0 9.985.563c1.078.28 1.969 1.171 2.25 2.296Zm-14.86 9.984 6.657-3.797-6.657-3.797v7.594Z"/>
</svg>
